modules/hawcons-filled/icons/icon-32-clipboard-edit.svg

<?xml version="1.0" encoding="UTF-8" standalone="no"?>
<svg width="32px" height="32px" viewBox="0 0 32 32" version="1.1" xmlns="http://www.w3.org/2000/svg" xmlns:xlink="http://www.w3.org/1999/xlink" xmlns:sketch="http://www.bohemiancoding.com/sketch/ns">
    <!-- Generator: Sketch 3.0.3 (7891) - http://www.bohemiancoding.com/sketch -->
    <title>icon 32 clipboard edit</title>
    <desc>Created with Sketch.</desc>
    <defs></defs>
    <g id="Page-1" stroke="none" stroke-width="1" fill="none" fill-rule="evenodd" sketch:type="MSPage">
        <g id="icon-32-clipboard-edit" sketch:type="MSArtboardGroup" fill="#929292">
            <path d="M26.4432278,13.1503345 L15.1570131,24.4499064 L15.1570131,24.4499064 L12.5514465,21.8443397 L23.8435383,10.5506451 L26.4432278,13.1503345 L26.4432278,13.1503345 Z M27.1499164,12.4428096 L28.8790954,10.711584 C29.269069,10.3211489 29.266195,9.68650423 28.8743,9.29568497 L27.6944866,8.11910998 C27.3018646,7.72756564 26.6692577,7.72452466 26.2779126,8.11592531 L24.5505949,9.84348817 L27.1499164,12.4428096 L27.1499164,12.4428096 Z M11.9037061,22.6108129 L11.2641602,25.7235103 L14.3990645,25.1061713 L11.9037061,22.6108129 L11.9037061,22.6108129 L11.9037061,22.6108129 Z M22,11 L22,8.00359486 C22,6.89703997 21.1090746,6 20.0025781,6 L18.9999942,6 L18.9999942,6 C18.9999981,6.00162671 19,6.00325388 19,6.0048815 L19,6.9951185 C19,8.1061002 18.1033337,9 16.9972399,9 L8.00276013,9 C6.89354265,9 6,8.10238398 6,6.9951185 L6,6.0048815 C6,6.00325387 6.00000192,6.0016267 6.00000577,6 L4.99742191,6 C3.89427625,6 3,6.88976324 3,8.00359486 L3,28.9964051 C3,30.10296 3.89092539,31 4.99742191,31 L20.0025781,31 C21.1057238,31 22,30.1102368 22,28.9964051 L22,19 L29.5801067,11.4198932 C30.3642921,10.6357079 30.3661881,9.36618809 29.5897496,8.58974962 L28.4102504,7.41025036 C27.6313906,6.6313906 26.372781,6.62721897 25.5801067,7.41989327 L22,11 L22,11 L22,11 Z M10,5 L10,3.99791312 C10,2.89826062 10.897616,2 12.0048815,2 L12.9951185,2 C14.1061002,2 15,2.89449617 15,3.99791312 L15,5 L17.0044225,5 C17.555163,5 18,5.44724809 18,5.99895656 L18,7.00104344 C18,7.55733967 17.5542648,8 17.0044225,8 L7.9955775,8 C7.44483697,8 7,7.55275191 7,7.00104344 L7,5.99895656 C7,5.44266033 7.44573523,5 7.9955775,5 L10,5 L10,5 Z M12.5,5 C12.7761424,5 13,4.77614239 13,4.5 C13,4.22385761 12.7761424,4 12.5,4 C12.2238576,4 12,4.22385761 12,4.5 C12,4.77614239 12.2238576,5 12.5,5 L12.5,5 Z" id="clipboard-edit" sketch:type="MSShapeGroup"></path>
        </g>
    </g>
</svg>

<svg width="32" height="32" viewBox="0 0 32 32" xmlns="http://www.w3.org/2000/svg"><path d="M26.443 13.15l-11.286 11.3-2.606-2.606 11.293-11.293 2.6 2.6zm.707-.707l1.73-1.731c.39-.39.386-1.025-.006-1.416l-1.18-1.177a1.001 1.001 0 0 0-1.416-.003L24.55 9.843l2.599 2.6zM11.904 22.61l-.64 3.113 3.135-.618-2.495-2.495zM22 11V8.004C22 6.897 21.11 6 20.003 6H19v.995A2.001 2.001 0 0 1 16.997 9H8.003A2.002 2.002 0 0 1 6 6.995v-.99V6H4.997C3.894 6 3 6.89 3 8.004v20.992C3 30.103 3.89 31 4.997 31h15.006C21.106 31 22 30.11 22 28.996V19l7.58-7.58a2.003 2.003 0 0 0 .01-2.83l-1.18-1.18a1.994 1.994 0 0 0-2.83.01L22 11zM10 5V3.998C10 2.898 10.898 2 12.005 2h.99C14.106 2 15 2.894 15 3.998V5h2.004c.551 0 .996.447.996.999v1.002a.994.994 0 0 1-.996.999H7.996A.997.997 0 0 1 7 7.001V5.999C7 5.443 7.446 5 7.996 5H10zm2.5 0a.5.5 0 1 0 0-1 .5.5 0 0 0 0 1z" fill="#929292" fill-rule="evenodd"/></svg>
